X:494
T: WOHL HEUTE NOCH UND MORGEN
N: E0455
O: Europa, Mitteleuropa, Deutschland, Hessen, Odenwald
R: Liebes - Lied
M: 2/4
L: 1/16
K: F
B,2 | F2F2G2c2 | A4G2
G2 | A2A2B2d2 | c6
c2 | d2c2d2e2 | f2d2c2
cB | A2A2G2G2 | F4z2
c2 | d2c2d2e2 | f2d2c2
cB | A2A2G2G2 | F4z2

